X:1
T:Title
%%score { ( 1 3 ) | ( 2 4 ) }
L:1/8
M:4/4
K:Bb
V:1 treble nm="Grand Piano"
V:3 treble 
V:2 bass 
V:4 bass 
V:1
 z4 z z/[Q:1/4=92] D/ E>=E | F6 z2 | d6 z2 | G6 z2 |[M:11/16] F/-F/-F/-F/-F/-F/-F/-F-<F | %5
[M:5/16] D<E=E/ |[M:4/4] F6 z2 | d6 z2 | d6 z2 |[M:11/16] B/-B/-B/-B/-B/-B/-B/-B-<B | %10
[M:5/16] B<AB/ |[M:4/4] c6 z2 |[M:11/16] d/-d/-d/-d/-d/-d/-d/-d-<d |[M:5/16] B<AB/ |[M:4/4] c6 z2 | %15
[M:11/16] d/-d/-d/-d/-d/-d/-d/-d-<d |[M:5/16] D<E=E/ |[M:4/4] F6 z2 | d6 z2 | %19
 d6 z2[Q:1/4=91][Q:1/4=89][Q:1/4=88][Q:1/4=87][Q:1/4=85][Q:1/4=84][Q:1/4=83][Q:1/4=81][Q:1/4=80][Q:1/4=78][Q:1/4=77][Q:1/4=76][Q:1/4=74][Q:1/4=73][Q:1/4=72][Q:1/4=70] | %20
[M:27/16] B/-B/-B/-B/-B/-B/-B/-B-<B z/ z/ z/ z/ z/ z/ z/ z/ z/ z/ z/ z/ z/ z/ z |] %21
V:2
 z4 z z/ B,/ C>_D | D6[K:treble] z2 | F6[K:bass][K:treble] z2 | E6[K:bass][K:treble] z2 | %4
[M:11/16][K:bass] D/-D/-D/-D/-D/-D/-D/-D-<D |[M:5/16] B,<C_D/ |[M:4/4] D6[K:treble] z2 | %7
 F6[K:bass][K:treble] z2 | G6[K:bass] z2 |[M:11/16] z/ z F,<G,G,<F, |[M:5/16] D<CD/ | %11
[M:4/4] E6[K:treble] z2 |[M:11/16] F/-F/-F/-F/-F/-F/-F/-F-<F |[M:5/16] D<CD/ | %14
[M:4/4] E6[K:bass][K:treble] z2 |[M:11/16] F/-F/-F/-F/-F/-F/-F/-F-<F |[M:5/16] B,<C_D/ | %17
[M:4/4] D6[K:bass] z2[K:treble] | F6[K:bass][K:treble] z2 | G6[K:bass] z2 | %20
[M:27/16] z/ z F,<G,G,<F, z/ z/ z/ z/ z/ z/ z/ z/ z/ z/ z/ z/ z/ z/ z |] %21
V:3
 x8 | z z/ B,/ B,>B, B,>B c>_d | z z/ B,/ B,>B, B,>c B>A | z z/ B,/ B,>B, B,>B A>G | %4
[M:11/16] z/ z B,<B,B,<B, |[M:5/16] x5/2 |[M:4/4] z z/ B,/ B,>B, B,>B c>_d | %7
 z z/ B,/ B,>B, B,>d d>d | z z/ B,/ B,>B, B,>B d>c |[M:11/16] [B,D]>DE>ED3/2 |[M:5/16] x5/2 | %11
[M:4/4] z z/ A/ A>A A>c B>c |[M:11/16] z/ z B<BB<B |[M:5/16] x5/2 |[M:4/4] z z/ A/ A>A A>c B>c | %15
[M:11/16] z/ z B<BB<B |[M:5/16] x5/2 |[M:4/4] z z/ B,/ B,>B, B,>B c>_d | z z/ B,/ B,>B, B,>d d>d | %19
 z z/ B,/ B,>B, B,>B d>c |[M:27/16] [B,D]>DE>ED3/2 z/ z/ z/ z/ z/ z/ z/ z/ z/ z/ z/ z/ z/ z/ z |] %21
V:4
 x8 | z2 F,>D, B,,>[K:treble]D E>=E | z2[K:bass] F,>D, B,,>[K:treble]A G>F | %3
 z z/[K:bass] E,/ E,>E, E,>[K:treble]G F>E |[M:11/16][K:bass] z/ z/ z F,>D,B,,3/2 |[M:5/16] x5/2 | %6
[M:4/4] z2 F,>D, B,,>[K:treble]D E>=E | z2[K:bass] F,>D, B,,>[K:treble]F F>^F | %8
 z z/ G,/[K:bass] G,>G, G,>[G,B,D] [F,B,F]>[F,A,E] | %9
[M:11/16] B,,/-B,,/-B,,/-B,,/-B,,/-B,,/-B,,/-B,,-<B,, |[M:5/16] x5/2 | %11
[M:4/4] z z/ F,/ F,>F, F,>[K:treble]E D>E |[M:11/16] z/ z B,<F,D,<B,, |[M:5/16] x5/2 | %14
[M:4/4] z z/[K:bass] F,/ F,>F, .F,>E[K:treble] D>E |[M:11/16] z/ z B,<F,D,<B,, |[M:5/16] x5/2 | %17
[M:4/4] z2[K:bass] F,>D, B,,>D E>[K:treble]=E | z2[K:bass] F,>D, B,,>[K:treble]F F>^F | %19
 z z/ G,/[K:bass] G,>G, G,>[G,B,D] [F,B,F]>[F,A,E] | %20
[M:27/16] B,,/-B,,/-B,,/-B,,/-B,,/-B,,/-B,,/-B,,-<B,, z/ z/ z/ z/ z/ z/ z/ z/ z/ z/ z/ z/ z/ z/ z |] %21

